!!!!SEGMENT: pl-wtm--r-1552--002_stefani-jozef--missa-no-13-gloria.krn
!!!cenid: 18xx:1813
!!!COM: Stefani, Józef
!!!COM-rismID: pe30024097
!!!CDT: 1800/04/16-1876/03/19
!!!CNT: Polish
!!!OPR: Missa No 13
!!!OTL: Gloria
!!!OMV: 002
!!!PDT:
!!!AGN: Sacred; Mass
!!!SMS-siglum: PL-Wtm
!!!SMS-shelfmark: R 1552
!!!SMS-shelfwork: 001-002 M
!!!SMS-variant:
!!!SMS-altvar:
!!!NIFC-rismSourceID: 1001115180
!!!NIFC-islandoraID: pl-wtm:26719
!!!URL-pdf-islandora: https://repozytorium.nifc.pl/islandora/object/pl-wtm%3A26719/datastream/PDF/view
!!!URL-scan: https://polish.musicsources.pl/pl/lokalizacje/galeria/rekopisy/6353 @EN{Scan on Polish Music Sources Website} @PL{Skany w portalu Dziedzictwo Muzyki Polskiej w otwartym dostępie}
!!!ONB-nifc: UWAGA: części Mszy: 1. Kyrie, 2. Gloria, 3. Graduale, 4. Credo, 5. Offertorium, 6. Sanctus, 7. Benedictus, 8. Agnus Dei
!!!AIN: 2 empty 1 organ 2 soprn 1 tenor 1 viola 2 violn
!!!key:
**kern	**kern	**kern	**dynam	**kern	**kern	**kern	**dynam	**kern	**dynam	**kern	**dynam	**kern	**text	**kern	**text	**dynam
*part9	*part9	*part8	*part8	*part7	*part6	*part5	*part5	*part4	*part4	*part3	*part3	*part2	*part2	*part1	*part1	*part1
*staff10	*staff9	*staff8	*	*staff7	*staff6	*staff5	*	*staff4	*	*staff3	*	*staff2	*staff2	*staff1	*staff1	*
*Iorgan	*Iempty	*Iempty	*	*Iviola	*Ivioln	*Ivioln	*	*Iempty	*	*Itenor	*	*Isoprn	*	*Isoprn	*	*
*I"Organo.	*	*I"Baſsi	*	*I"Viole	*I"[Violino II]	*I"Violini	*	*I"Baſso	*	*I"Tenore	*	*I"[Soprani]	*	*I"Soprani	*	*
*I'org	*	*I'b	*	*I'vle	*I'[vni]	*I'vni	*	*I'B	*	*I'T	*	*I'[S]	*	*I'S	*	*
*clefF4	*clefG2	*clefF4	*	*clefC3	*clefG2	*clefG2	*	*clefF4	*	*clefC4	*	*clefG2	*	*clefG2	*	*
*	*	*Trd0c0	*	*	*	*	*	*	*	*	*	*	*	*	*	*
*k[b-]	*k[b-]	*k[b-]	*	*k[b-]	*k[b-]	*k[b-]	*	*k[b-]	*	*k[b-]	*	*k[b-]	*	*k[b-]	*	*
*F:	*F:	*F:	*	*F:	*F:	*F:	*	*F:	*	*F:	*	*F:	*	*F:	*	*
*M2/2	*M2/2	*M2/2	*	*M2/2	*M2/2	*M2/2	*	*M2/2	*	*M2/2	*	*M2/2	*	*M2/2	*	*
*met(c|)	*met(c|)	*met(c|)	*	*met(c|)	*met(c|)	*met(c|)	*	*met(c|)	*	*met(c|)	*	*met(c|)	*	*met(c|)	*	*
*>[A,B,B,C]	*>[A,B,B,C]	*>[A,B,B,C]	*	*>[A,B,B,C]	*>[A,B,B,C]	*>[A,B,B,C]	*	*>[A,B,B,C]	*	*>[A,B,B,C]	*	*>[A,B,B,C]	*	*>[A,B,B,C]	*	*
*>A	*>A	*>A	*	*>A	*>A	*>A	*	*>A	*	*>A	*	*>A	*	*>A	*	*
*2\right	*	*2\right	*	*	*	*	*	*	*	*	*	*	*	*	*	*
!!LO:TX:t=P:problem:all\right:global
!	!	!	!	!	!	!	!LO:DY:a	!	!	!	!	!	!	!	!	!
[2A\	2a/	(2A\	.	2r	2r	2a^/	mf	2r	.	2r	.	2r	.	2r	.	.
=1	=1	=1	=1	=1	=1	=1	=1	=1	=1	=1	=1	=1	=1	=1	=1	=1
*	*^	*	*	*	*	*	*	*	*	*	*	*	*	*	*	*
*	*	*	*	*	*	*	*2\right	*	*	*	*	*	*	*	*	*	*
4A\]	2b-/	1g	4A\	.	1r	2r	(2b-\	.	1r	.	1r	.	1r	.	1r	.	.
8G\L	.	.	8G\L	.	.	.	.	.	.	.	.	.	.	.	.	.	.
8F\J	.	.	8F\J)	.	.	.	.	.	.	.	.	.	.	.	.	.	.
2E\	4cc/	.	2E\	.	.	2g/	4cc\	.	.	.	.	.	.	.	.	.	.
.	4b-/	.	.	.	.	.	4b-\)	.	.	.	.	.	.	.	.	.	.
*	*v	*v	*	*	*	*	*	*	*	*	*	*	*	*	*	*	*
=2	=2	=2	=2	=2	=2	=2	=2	=2	=2	=2	=2	=2	=2	=2	=2	=2
4F\	4f/ 4a	4F\	.	4r	4f/	4a/	.	1r	.	1r	.	1r	.	1r	.	.
*	*	*tremolo	*	*tremolo	*tremolo	*tremolo	*	*	*	*	*	*	*	*	*	*
!	!	!	!LO:DY:a	!	!	!	!	!	!	!	!	!	!	!	!	!
4DD/ 4D	4f\ 4a 4ff	8D\L	f	8d\L	8a/L	8ff\L	f	.	.	.	.	.	.	.	.	.
.	.	8D\J	.	8d\J	8a/J	8ff\J	.	.	.	.	.	.	.	.	.	.
4EE/ 4E	4g\ 4a 4cc#X 4ee	8E\L	.	8c#X\L	8g/L	8ee\L	.	.	.	.	.	.	.	.	.	.
.	.	8E\J	.	8c#X\J	8g/J	8ee\J	.	.	.	.	.	.	.	.	.	.
4FF/ 4F	4f/ 4a 4dd	8F\L	.	8d\L	8f/L	8dd\L	.	.	.	.	.	.	.	.	.	.
.	.	8F\J	.	8d\J	8f/J	8dd\J	.	.	.	.	.	.	.	.	.	.
*	*	*Xtremolo	*	*	*	*	*	*	*	*	*	*	*	*	*	*
=3	=3	=3	=3	=3	=3	=3	=3	=3	=3	=3	=3	=3	=3	=3	=3	=3
*	*^	*	*	*	*	*	*	*	*	*	*	*	*	*	*	*
*	*	*2\right	*	*	*2\right	*	*	*	*	*	*	*	*	*	*	*	*
4GG/ 4G	2.cc/	2e\ 2g	4G\	.	8e\L	8e/L	8cc\L	.	1r	.	1r	.	1r	.	1r	.	.
.	.	.	.	.	8e\	8e/J	8cc\	.	.	.	.	.	.	.	.	.	.
4GG/	.	.	4GG/	.	8e\	8g/L	8cc\	.	.	.	.	.	.	.	.	.	.
.	.	.	.	.	8e\J	8g/J	8cc\	.	.	.	.	.	.	.	.	.	.
4G\	.	2d\ 2f	4G\	.	8d\L	8f/L	8cc\	.	.	.	.	.	.	.	.	.	.
.	.	.	.	.	8d\	8f/	8cc\J	.	.	.	.	.	.	.	.	.	.
4GG/	4bn/	.	4GG/	.	8d\	8f/	8bn\L	.	.	.	.	.	.	.	.	.	.
.	.	.	.	.	8d\J	8f/J	8bn\J	.	.	.	.	.	.	.	.	.	.
*	*	*	*	*	*Xtremolo	*Xtremolo	*Xtremolo	*	*	*	*	*	*	*	*	*	*
*	*v	*v	*	*	*	*	*	*	*	*	*	*	*	*	*	*	*
!!LO:PB:g=original
=4	=4	=4	=4	=4	=4	=4	=4	=4	=4	=4	=4	=4	=4	=4	=4	=4
4C/	4e/ 4cc	4C/	.	4c\	(4e/	(4cc\	.	1r	.	1r	.	1r	.	1r	.	.
4c\	4g/ 4b-X	4c\	.	4r	4g/)	4b-X\)	.	.	.	.	.	.	.	.	.	.
4C/	4f/ 4a	4C/	.	4r	(4f/	(4a/	.	.	.	.	.	.	.	.	.	.
4c\	4e/ 4g	4c\	.	4c\	4e/)	4g/)	.	.	.	.	.	.	.	.	.	.
=5!|:	=5!|:	=5!|:	=5!|:	=5!|:	=5!|:	=5!|:	=5!|:	=5!|:	=5!|:	=5!|:	=5!|:	=5!|:	=5!|:	=5!|:	=5!|:	=5!|:
*>B	*>B	*>B	*	*>B	*>B	*>B	*	*>B	*	*>B	*	*>B	*	*>B	*	*
*^	*^	*^	*	*	*	*	*	*	*	*	*	*	*	*	*	*
*	*	*	*	*	*	*	*	*	*	*	*2\right	*	*2\right	*	*	*	*	*	*
4F/	1F	2a/	1f	4F/	2F\	.	(2c\	4f/	4a|</	.	2F\	.	2c\	.	2f/	2.) Przed	2a/	1.) Chwa-	.
4c/	.	.	.	4c/	.	.	.	2.f/	(4a/	.	.	.	.	.	.	.	.	.	.
4d/	.	4b-/	.	4d/	4F\	.	4d\	.	4b-\	.	2F\	.	(4d\	.	2f/	nim	(4b-\	-łę	.
4B-/	.	4dd/	.	4B-/	4F\	.	4B-/)	.	4dd\)	.	.	.	4B-\)	.	.	.	4dd\)	.	.
=6	=6	=6	=6	=6	=6	=6	=6	=6	=6	=6	=6	=6	=6	=6	=6	=6	=6	=6	=6
2A/	1F	2cc/	1f	2A/	2F\	.	2A/	2f/	2cc\	.	2F\	.	2A\	.	2f/	Ko-	2cc\	Pa-	.
2c/	.	(<2a/	.	2ryy	[2F\	.	2c/	(2f/	2a/	.	2F\	.	2c\	.	2f/	-ło	2a/	-na	.
*v	*v	*	*	*	*	*	*	*	*	*	*	*	*	*	*	*	*	*	*
=7	=7	=7	=7	=7	=7	=7	=7	=7	=7	=7	=7	=7	=7	=7	=7	=7	=7	=7
2.C\ 2.G 2.c	2.g/	4f\)	(4F/]	2.C\	.	2.c\	4f/	2.g/	.	2.C/	.	2.c\	.	(4f/	czas	2.g/	wdzięcz-	.
.	.	8e\L	8E/L	.	.	.	8e/L	.	.	.	.	.	.	8e/L	.	.	.	.
.	.	8d\J	8D/J	.	.	.	8d/J	.	.	.	.	.	.	8d/J	.	.	.	.
.	.	2e\	2E/)	.	.	.	4e/)	.	.	.	.	.	.	4e/)	.	.	.	.
4CC/ 4C	4cc/	.	.	4C\	.	4c\	4e/	4cc\	.	4C/	.	4c\	.	4e/	za-	4cc\	-nem	.
*	*	*	*v	*v	*	*	*	*	*	*	*	*	*	*	*	*	*	*
=8	=8	=8	=8	=8	=8	=8	=8	=8	=8	=8	=8	=8	=8	=8	=8	=8	=8
4DD/ 4D	2b-/	4B-\ 4f	4D\	.	(4B-/	4f/	2b-/	.	(4D\	.	(4B-\	.	(>4f/	-trzy-	2b-/	pie-	.
4EE/ 4E	.	4c\ 4g	4E\	.	4c/)	4g/	.	.	4E\	.	4c\)	.	4g/)	.	.	.	.
2FF/ 2F	2c/ 2f 2a	2ryy	2F\	.	2c/	2f/	2a/	.	2F\)	.	2c\	.	2f/	-ma	2a/	-niem	.
*	*v	*v	*	*	*	*	*	*	*	*	*	*	*	*	*	*	*
=9	=9	=9	=9	=9	=9	=9	=9	=9	=9	=9	=9	=9	=9	=9	=9	=9
*^	*	*^	*	*	*	*	*	*	*	*	*	*	*	*	*	*
*	*	*	*tremolo	*tremolo	*	*tremolo	*tremolo	*tremolo	*	*	*	*	*	*	*	*	*	*
!	!	!	!	!	!	!	!	!	!	!	!LO:DY:a	!	!LO:DY:a	!	!	!	!	!LO:DY:a
4F/	2F\	2f/ 2a	8F/L	8F\L	.	8cL	8f/L	8a/L	f	2F\	f	2c\	f	2f/	Pa-	2a/	Lu-	f
.	.	.	8F/J	8F\	.	8c	8f/	8a/	.	.	.	.	.	.	.	.	.	.
4c/	.	.	8c/L	8F\	.	8c	8f/	8a/	.	.	.	.	.	.	.	.	.	.
.	.	.	8c/J	8F\J	.	8c	8f/J	8a/J	.	.	.	.	.	.	.	.	.	.
4E/	2E\	2g/ 2cc	8E/L	8E\L	.	8c	8g/L	8cc\L	.	4E\	.	4c\	.	4g/	-dną	4cc\	-dy	.
.	.	.	8E/J	8E\	.	8c	8g/	8cc\	.	.	.	.	.	.	.	.	.	.
4c/	.	.	8c/L	8E\	.	8c	8g/	8cc\	.	4E\	.	4c\	.	4g/	te	4cc\	A-	.
.	.	.	8c/J	8E\J	.	8cJ	8g/J	8cc\J	.	.	.	.	.	.	.	.	.	.
*	*	*	*Xtremolo	*Xtremolo	*	*Xtremolo	*Xtremolo	*Xtremolo	*	*	*	*	*	*	*	*	*	*
=10	=10	=10	=10	=10	=10	=10	=10	=10	=10	=10	=10	=10	=10	=10	=10	=10	=10	=10
*	*	*^	*	*	*	*	*	*	*	*	*	*	*	*	*	*	*	*
8D/L	4BB-\	4b-X/	2f\	8D/L	4D\	.	(4B-/	2f/	(4b-/	.	(4D/	.	(4B-\	.	2f/	świa-	(4b-/	-nio-	.
8B-/J	.	.	.	8B-/J	.	.	.	.	.	.	.	.	.	.	.	.	.	.	.
8C/L	4C\	4a/	.	8C/L	4C\	.	4c/)	.	4a/	.	4C/)	.	4c\	.	.	.	4a/)	.	.
8A/J	.	.	.	8A/J	.	.	.	.	.	.	.	.	.	.	.	.	.	.	.
8BB-/L	4BB-\	4g/	2d\	8BB-/L	4BB-\	.	4d\	4f/	4g/)	.	4BB-/	.	4d\)	.	4f/	-ty	4g/	-ły	.
8G/J	.	.	.	8G/J	.	.	.	.	.	.	.	.	.	.	.	.	.	.	.
8BBn/L	4BBn\	4f/	.	8BBn/L	4BBn\	.	4d\	4f/	4f/	.	4BBn/	.	4d\	.	4f/	i	4f/	ro-	.
8G/J	.	.	.	8G/J	.	.	.	.	.	.	.	.	.	.	.	.	.	.	.
*v	*v	*	*	*v	*v	*	*	*	*	*	*	*	*	*	*	*	*	*	*
*	*v	*v	*	*	*	*	*	*	*	*	*	*	*	*	*	*	*
!!LO:LB:g=original
=11	=11	=11	=11	=11	=11	=11	=11	=11	=11	=11	=11	=11	=11	=11	=11	=11
8C\L	[2f/ [2a	8C\L	.	[2c\	[2f/	[>2a/	.	1C	.	1c	.	1f	słoń-	1a	-znie-	.
8F\	.	8F\	.	.	.	.	.	.	.	.	.	.	.	.	.	.
8A\	.	8A\	.	.	.	.	.	.	.	.	.	.	.	.	.	.
8c\J	.	8c\J	.	.	.	.	.	.	.	.	.	.	.	.	.	.
4C/	8f/L] 8a]	4C/	.	8c\L]	8f/L]	8a\L]	.	.	.	.	.	.	.	.	.	.
.	8f/ 8a 8cc	.	.	8f\	8a/	8cc\	.	.	.	.	.	.	.	.	.	.
4C\ 4F 4A	8a/ 8cc 8ff	4C/	.	8a\	8cc/	8ff\	.	.	.	.	.	.	.	.	.	.
.	8cc/J 8ff 8aa	.	.	8cc\J	8ff/J	8aa\J	.	.	.	.	.	.	.	.	.	.
=12	=12	=12	=12	=12	=12	=12	=12	=12	=12	=12	=12	=12	=12	=12	=12	=12
4C\ 4E 4G 4c	4cc\ 4ee 4ccc	4C/	.	4c\	4ee\	4ccc\	.	2C/	.	2c\	.	2e/	-ca	2g/	-ście	.
4r	4cc\	4r	.	4r	4cc\	4cc\	.	.	.	.	.	.	.	.	.	.
.	(8qee/	.	.	.	(8qee/	(8qee/	.	.	.	.	.	.	.	.	.	.
2r	4dd\)	2r	.	2r	4dd\)	4dd\)	.	2r	.	2r	.	2r	.	2r	.	.
.	4cc\	.	.	.	4cc\	4cc\	.	.	.	.	.	.	.	.	.	.
=13	=13	=13	=13	=13	=13	=13	=13	=13	=13	=13	=13	=13	=13	=13	=13	=13
*^	*^	*^	*	*	*	*	*	*	*	*	*	*	*	*	*	*
4C/	1C	2g/	1e	4C/	4C\	.	4c\	4e/	4g/	.	2C/	.	2c\	.	2e/	Je-	2g/	O-	.
4c/	.	.	.	4c/	4r	.	4c\	4e/	4g/	.	.	.	.	.	.	.	.	.	.
*	*	*	*	*	*	*	*	*	*	*	*	*	*	*	*	*	*2\right	*	*
!	!	!	!	!	!	!	!	!	!	!	!	!	!	!	!	!	!	!	!LO:HP:b
4G/	.	2cc/	.	4G/	4C\	.	4r	4r	4r	.	2C/	.	2c\	.	2e/	-mu	2cc\	-ży-	<[
4c/	.	.	.	4c/	4r	.	4c\	4e/	4cc\	.	.	.	.	.	.	.	.	.	.
=14	=14	=14	=14	=14	=14	=14	=14	=14	=14	=14	=14	=14	=14	=14	=14	=14	=14	=14	=14
!	!	!	!	!	!	!	!	!	!	!	!	!	!	!	!	!	!	!	!LO:HP:b
4BBn/	2BBn\	4.ee/	2f\	2Bn/	2BBn\	.	2f\	2f/	(4.ee\	.	2BBn/	.	2f\	.	2f/	tyl-	(4.ee\	-wie-	>
4Bny/	.	.	.	.	.	.	.	.	.	.	.	.	.	.	.	.	.	.	.
.	.	8dd/	.	.	.	.	.	.	8dd\)	.	.	.	.	.	.	.	8dd\	.	]
4c\	4C\	2cc/	4e\	4c/	4C\	.	4e\	2g/	2cc\	.	4C/	.	4e\	.	2g/	-ko	2cc\)	-ni	.
4E/	4E\	.	4c\	4ryy	4E\	.	4c\	.	.	.	4E\	.	4c\	.	.	.	.	.	.
=15	=15	=15	=15	=15	=15	=15	=15	=15	=15	=15	=15	=15	=15	=15	=15	=15	=15	=15	=15
4F/	2F\	2a/	2f/	4F/	4F\	.	8r	8r	8r	.	2F\	.	2c\	.	2f/	gra-	2a/	Je-	.
.	.	.	.	.	.	.	8c\L	8f/L	8a/L	.	.	.	.	.	.	.	.	.	.
4c/	.	.	.	4c/	4r	.	8c\	8f/	8a/	.	.	.	.	.	.	.	.	.	.
.	.	.	.	.	.	.	8c\J	8f/J	8a/J	.	.	.	.	.	.	.	.	.	.
4D/	2D\	2bn/	4g\	4D/	4D\	.	8r	8r	8r	.	2D\	.	4d\	.	(4g/	-nic	2bn/	-go	.
!	!	!	!	!	!	!	!LO:TX:t=P:problem=mixed beam	!	!	!	!	!	!	!	!	!	!	!	!
.	.	.	.	.	.	.	8d\L	8g/L	8bn/L	.	.	.	.	.	.	.	.	.	.
4G/	.	.	4f\	4G/	4r	.	8G/	8f/	8b/	.	.	.	4G/	.	4f/)	.	.	.	.
.	.	.	.	.	.	.	8G/J	8f/J	8b/J	.	.	.	.	.	.	.	.	.	.
!!LO:PB:g=original
=16	=16	=16	=16	=16	=16	=16	=16	=16	=16	=16	=16	=16	=16	=16	=16	=16	=16	=16	=16
4C/	1C	4dd/	1e	4C/	4C\	.	8r	8r	(4dd\	.	2C/	.	2G/	.	2e/	nie	(4dd\	thnie-	.
.	.	.	.	.	.	.	8G/L	8e/L	.	.	.	.	.	.	.	.	.	.	.
4G/	.	4cc/	.	4G/	4r	.	8G/	8e/	4cc\)	.	.	.	.	.	.	.	4cc\)	.	.
.	.	.	.	.	.	.	8G/J	8e/J	.	.	.	.	.	.	.	.	.	.	.
4c/	.	2g/	.	4c/	4C\	.	8r	8r	2g/	.	2C/	.	2c\	.	2e/	ma	2g/	-niem	.
*	*	*	*	*	*	*	*tremolo	*tremolo	*	*	*	*	*	*	*	*	*	*	*
.	.	.	.	.	.	.	8c\L	8e/L	.	.	.	.	.	.	.	.	.	.	.
4G/	.	.	.	4G/	4r	.	8c\	8e/	.	.	.	.	.	.	.	.	.	.	.
.	.	.	.	.	.	.	8c\J	8e/J	.	.	.	.	.	.	.	.	.	.	.
*	*	*	*	*v	*v	*	*	*	*	*	*	*	*	*	*	*	*	*	*
=17	=17	=17	=17	=17	=17	=17	=17	=17	=17	=17	=17	=17	=17	=17	=17	=17	=17	=17
*	*	*	*	*tremolo	*	*	*	*	*	*	*	*	*	*	*	*	*	*
!	!	!	!	!	!	!	!	!	!	!	!LO:DY:a	!	!	!	!	!	!	!LO:DY:a
4C/	2C\	2e/ 2cc	2.g\	8C/L	.	8GL	8e/L	(4.cc\	.	2C/	f	2G/	.	2e/	Je-	(4.cc\	W_nim	f
.	.	.	.	8C/	.	8G	8e/	.	.	.	.	.	.	.	.	.	.	.
4G/	.	.	.	8C/	.	8G	8e/	.	.	.	.	.	.	.	.	.	.	.
.	.	.	.	8C/J	.	8G	8e/J	16dd\LL	.	.	.	.	.	.	.	16dd\LL	.	.
.	.	.	.	.	.	.	.	16cc\JJ)	.	.	.	.	.	.	.	16cc\JJ)	.	.
*	*	*	*	*	*	*	*	*tremolo	*	*	*	*	*	*	*	*	*	*
8D/L	4D\	4f/ 4bn	.	8D\L	.	8G	8f/L	8bn\L	.	4D\	.	4G/	.	4f/	-go	4bn\	i	.
8F/J	.	.	.	8D\J	.	8G	8f/J	8b\J	.	.	.	.	.	.	.	.	.	.
8E/L	4E\	4c/ 4g 4cc	4ryy	8E\L	.	8G	8g/L	8cc\L	.	4E\	.	4G/	.	4g/	iest	4cc\	dla	.
8G/J	.	.	.	8E\J	.	8GJ	8g/J	8cc\J	.	.	.	.	.	.	.	.	.	.
*v	*v	*	*	*	*	*	*	*	*	*	*	*	*	*	*	*	*	*
*	*v	*v	*	*	*	*	*	*	*	*	*	*	*	*	*	*	*
=18	=18	=18	=18	=18	=18	=18	=18	=18	=18	=18	=18	=18	=18	=18	=18	=18
4F\ 4A	4c/ 4f 4a	8F\L	.	8A/L	8a/L	8a/L	.	(4F\	.	(4A\	.	2a/	wiecz-	(4a\	nie-	.
.	.	8F\J	.	8A/J	8a/	8a/J	.	.	.	.	.	.	.	.	.	.
4DD/ 4D	4f/ 4a 4ff	8D\L	.	8d\L	8a/	8ff\L	.	4D\)	.	4d\)	.	.	.	4ff\)	.	.
.	.	8D\J	.	8d\J	8a/J	8ff\J	.	.	.	.	.	.	.	.	.	.
4EE/ 4E	4g/ 4a 4cc#X 4ee	8E\L	.	8c#X\L	8g/L	8ee\L	.	4E\	.	4c#X\	.	4g/	-ność	4ee\	-go	.
.	.	8E\J	.	8c#X\J	8g/J	8ee\J	.	.	.	.	.	.	.	.	.	.
4FF/ 4F	4f/ 4a 4dd	8F\L	.	8d\L	8f/L	8dd\L	.	4F\	.	4d\	.	4f/	bez	4dd\	ie-	.
.	.	8F\J	.	8d\J	8f/J	8dd\J	.	.	.	.	.	.	.	.	.	.
=19	=19	=19	=19	=19	=19	=19	=19	=19	=19	=19	=19	=19	=19	=19	=19	=19
*	*^	*	*	*	*	*	*	*	*	*	*	*	*	*	*	*
4GG/ 4G	2.cc/	2e\ 2g	8G\L	.	8cn\L	8e/L	8cc\L	.	2G\	.	(4cn\	.	(4e/	koń-	(2.cc\	-ste-	.
.	.	.	8G\	.	8cn\J	8e/J	8cc\	.	.	.	.	.	.	.	.	.	.
4GG/	.	.	8G\	.	8e\L	8g/L	8cc\	.	.	.	4e\)	.	4g/	.	.	.	.
.	.	.	8G\J	.	8e\J	8g/J	8cc\	.	.	.	.	.	.	.	.	.	.
4G\	.	2d\ 2f	8GG/L	.	8d\L	8f/L	8cc\	.	2GG/	.	2d\	.	2f/)	.	.	.	.
.	.	.	8GG/	.	8d\	8f/	8cc\J	.	.	.	.	.	.	.	.	.	.
4GG/	4bn/	.	8GG/	.	8d\	8f/	8bn\L	.	.	.	.	.	.	.	4bn\)	.	.
.	.	.	8GG/J	.	8d\J	8f/J	8bn\J	.	.	.	.	.	.	.	.	.	.
*	*	*	*Xtremolo	*	*Xtremolo	*Xtremolo	*Xtremolo	*	*	*	*	*	*	*	*	*	*
*	*v	*v	*	*	*	*	*	*	*	*	*	*	*	*	*	*	*
=20	=20	=20	=20	=20	=20	=20	=20	=20	=20	=20	=20	=20	=20	=20	=20	=20
4C/	4e/ 4cc	4C/	.	4c\	4e/	4cc\	.	4C/	.	4c\	.	4e/	-ca.	4cc\	-ście.	.
4c\	4g/ 4b-X	4c\	.	4c\	(4g/	(4b-X/	.	4r	.	4r	.	4r	.	4r	.	.
4C/	4f/ 4a	4C/	.	4C/	4f/	4a/	.	2r	.	2r	.	2r	.	2r	.	.
4c\	4e/ 4g	4c\	.	4c\	4e/)	4g/)	.	.	.	.	.	.	.	.	.	.
!!LO:LB:g=original
=21:|!	=21:|!	=21:|!	=21:|!	=21:|!	=21:|!	=21:|!	=21:|!	=21:|!	=21:|!	=21:|!	=21:|!	=21:|!	=21:|!	=21:|!	=21:|!	=21:|!
*>C	*>C	*>C	*	*>C	*>C	*>C	*	*>C	*	*>C	*	*>C	*	*>C	*	*
*^	*^	*^	*	*	*	*	*	*	*	*	*	*	*	*	*	*
4F/	1F	2a/	1f	(4F/	2F\	.	(2c\	4f/	4a/	.	2F\	.	2c\	.	2f/	.	[4a/	Je-	.
4c/	.	.	.	4c/	.	.	.	2.f/	(4a/	.	.	.	.	.	.	.	4a/]	.	.
4d/	.	4b-/	.	4d/	2F\	.	4d\	.	4b-\	.	2F\	.	(4d\	.	2f/	.	(4b-X\	-mu	.
4B-/	.	4dd/	.	4B-/)	.	.	4B-/)	.	4dd\)	.	.	.	4B-\)	.	.	.	4dd\)	.	.
=22	=22	=22	=22	=22	=22	=22	=22	=22	=22	=22	=22	=22	=22	=22	=22	=22	=22	=22	=22
2A/	1F	2cc/	[1f	2A/	2F\	.	2A/	2f/	2cc\	.	2F\	.	2A\	.	2f/	.	2cc\	słoń-	.
2c/	.	2a/	.	2F/	2F\	.	2c\	(2f/	2a/	.	2F\	.	2c\	.	2f/	.	2a/	-ce	.
*v	*v	*	*	*v	*v	*	*	*	*	*	*	*	*	*	*	*	*	*	*
=23	=23	=23	=23	=23	=23	=23	=23	=23	=23	=23	=23	=23	=23	=23	=23	=23	=23
2.C\ 2.G 2.c	2.g/	4f\]	2.C/	.	2.c\	4f/	2.g/	.	2.C/	.	2.c\	.	(4f/	.	2.g/	w_hoł-	.
.	.	8e\L	.	.	.	8e/L	.	.	.	.	.	.	8e/L	.	.	.	.
.	.	8d\J	.	.	.	8d/J)	.	.	.	.	.	.	8d/J)	.	.	.	.
.	.	2e\	.	.	.	4e/	.	.	.	.	.	.	4e/	.	.	.	.
4CC/ 4C	4cc/	.	4C/	.	4c\	4e/	4cc\	.	4C/	.	4c\	.	4e/	.	4cc\	-dzie	.
=24	=24	=24	=24	=24	=24	=24	=24	=24	=24	=24	=24	=24	=24	=24	=24	=24	=24
4DD/ 4D	2b-/	4B-\ 4f	4D\	.	4B-/	4f/	2b-\	.	(4D\	.	(4B-\	.	(4f/	.	2b-/	świe-	.
4EE/ 4E	.	4c\ 4g	4E\	.	4c/	4g/	.	.	4E\)	.	4c\)	.	4g/)	.	.	.	.
2FF/ 2F	2c/ 2f 2a	2ryy	2F\	.	2c/	2f/	2a/	.	2F\	.	2c\	.	2f/	.	2a/	-ci	.
*	*v	*v	*	*	*	*	*	*	*	*	*	*	*	*	*	*	*
=25	=25	=25	=25	=25	=25	=25	=25	=25	=25	=25	=25	=25	=25	=25	=25	=25
*^	*	*^	*	*	*	*	*	*	*	*	*	*	*	*	*	*
*	*	*	*tremolo	*tremolo	*	*tremolo	*tremolo	*tremolo	*	*	*	*	*	*	*	*	*	*
!	!	!	!	!	!	!	!	!	!LO:DY:a	!	!LO:DY:a	!	!	!	!	!	!	!LO:DY:a
4F/	2F\	2f/ 2a	8F/L	8F\L	f	8cL	8f/L	8a/L	f	2F\	f	2c\	.	2f/	.	2a/	Wia-	f
.	.	.	8F/J	8F\	.	8c	8f/	8a/	.	.	.	.	.	.	.	.	.	.
4c/	.	.	8c/L	8F\	.	8c	8f/	8a/	.	.	.	.	.	.	.	.	.	.
.	.	.	8c/J	8F\J	.	8c	8f/J	8a/J	.	.	.	.	.	.	.	.	.	.
4E/	2E\	2g/ 2cc	8E/L	8E\L	.	8c	8g/L	8cc\L	.	4E\	.	4c\	.	4g/	.	4cc\	-try	.
.	.	.	8E/J	8E\	.	8c	8g/	8cc\	.	.	.	.	.	.	.	.	.	.
4c/	.	.	8c/L	8E\	.	8c	8g/	8cc\	.	4E\	.	4c\	.	4g/	.	4cc\	wy-	.
.	.	.	8c/J	8E\J	.	8cJ	8g/J	8cc\J	.	.	.	.	.	.	.	.	.	.
*	*	*	*Xtremolo	*Xtremolo	*	*Xtremolo	*Xtremolo	*Xtremolo	*	*	*	*	*	*	*	*	*	*
=26	=26	=26	=26	=26	=26	=26	=26	=26	=26	=26	=26	=26	=26	=26	=26	=26	=26	=26
*	*	*^	*	*	*	*	*	*	*	*	*	*	*	*	*	*	*	*
8D/L	4BB-\	4b-/	2f\	8D/L	4D\	.	(>4B-/	2f/	(4b-/	.	(4D/	.	(4B-\	.	2f/	.	(4b-/	-ro-	.
8B-/J	.	.	.	8B-/J	.	.	.	.	.	.	.	.	.	.	.	.	.	.	.
8C/L	4C\	4a/	.	8C/L	4C\	.	4c/	.	4a/)	.	4C/)	.	4c\)	.	.	.	4a/)	.	.
8A/J	.	.	.	8A/J	.	.	.	.	.	.	.	.	.	.	.	.	.	.	.
8BB-/L	4BB-\	4g/	2d\	8BB-/L	4BB-\	.	4d\)	4f/	(4g/	.	4BB-/	.	4d\	.	4f/	.	4g/	-ki	.
8G/J	.	.	.	8G/J	.	.	.	.	.	.	.	.	.	.	.	.	.	.	.
8BBn/L	4BBn\	4f/	.	8BBn/L	4BBn\	.	4d\	4f/	4f/)	.	4BBn/	.	4d\	.	4f/	.	4f/	ro[z]-	.
8G/J	.	.	.	8G/J	.	.	.	.	.	.	.	.	.	.	.	.	.	.	.
*v	*v	*	*	*v	*v	*	*	*	*	*	*	*	*	*	*	*	*	*	*
*	*v	*v	*	*	*	*	*	*	*	*	*	*	*	*	*	*	*
!!LO:PB:g=original
=27	=27	=27	=27	=27	=27	=27	=27	=27	=27	=27	=27	=27	=27	=27	=27	=27
8C\L	[2f/ [2a	8C\L	.	[2c\	[2f/	[>2a/	.	1C	.	1c	.	1f	.	1a	-no-	.
8F\	.	8F\	.	.	.	.	.	.	.	.	.	.	.	.	.	.
8A\	.	8A\	.	.	.	.	.	.	.	.	.	.	.	.	.	.
8c\J	.	8c\J	.	.	.	.	.	.	.	.	.	.	.	.	.	.
4C/	8f/L] 8a]	4C/	.	8c\L]	8f/L]	8a\L]	.	.	.	.	.	.	.	.	.	.
.	8f/ 8a 8cc	.	.	8f\	8a/	8cc\	.	.	.	.	.	.	.	.	.	.
4C\ 4F 4A	8a/ 8cc 8ff	4C/	.	8a\	8cc/	8ff\	.	.	.	.	.	.	.	.	.	.
.	8cc/J 8ff 8aa	.	.	8cc\J	8ff/J	8aa\J	.	.	.	.	.	.	.	.	.	.
=28	=28	=28	=28	=28	=28	=28	=28	=28	=28	=28	=28	=28	=28	=28	=28	=28
4C\ 4E 4G 4c	4cc\ 4ee 4ccc	4C/	.	4c\	4ee\	4ccc\	.	2C/	.	2c\	.	2e/	.	2g/	-szą	.
4r	4cc\	4r	.	4r	4cc\	4cc\	.	.	.	.	.	.	.	.	.	.
.	(8qee/	.	.	.	(8qee/	(8qee/	.	.	.	.	.	.	.	.	.	.
2r	4dd\)	2r	.	2r	4dd\)	4dd\)	.	2r	.	2r	.	2r	.	2r	.	.
.	4cc\	.	.	.	4cc\	4cc\	.	.	.	.	.	.	.	.	.	.
=29	=29	=29	=29	=29	=29	=29	=29	=29	=29	=29	=29	=29	=29	=29	=29	=29
*^	*^	*^	*	*	*	*	*	*	*	*	*	*	*	*	*	*
4C/	1C	2g/	1e	4C/	4C\	.	4c\	4e/	4g/	.	2C/	.	2c\	.	2e/	.	2g/	Lu-	.
4c/	.	.	.	4c/	4r	.	4c\	4e/	4g/	.	.	.	.	.	.	.	.	.	.
4G/	.	2g/ 2cc	.	4G/	4C\	.	4r	4r	4r	.	2C/	.	2e\	.	2g/	.	2cc\	-dy	.
4c/	.	.	.	4c/	4r	.	4c\	4g/	4cc\	.	.	.	.	.	.	.	.	.	.
=30	=30	=30	=30	=30	=30	=30	=30	=30	=30	=30	=30	=30	=30	=30	=30	=30	=30	=30	=30
*	*	*	*^	*	*	*	*	*	*	*	*	*	*	*	*	*	*	*	*
4BBn/	2BBn\	4.ee/	2f\	1g	(2Bn/	(>2BBn\	.	2f\	2f/	(4.ee\	.	2BBn/	.	2f\	.	2g/	.	(4.ee\	ziem-	.
4Bn/	.	.	.	.	.	.	.	.	.	.	.	.	.	.	.	.	.	.	.	.
.	.	8dd/	.	.	.	.	.	.	.	8dd\)	.	.	.	.	.	.	.	8dd\)	.	.
4c\	4C\	2cc/	4e\ 4g	.	4c/)	4C\)	.	4e\	2g/	2cc\	.	(4C\	.	(4e\	.	2g/	.	2cc\	-skie	.
4E/	4E\	.	4c\ 4g	.	4E/	4E\	.	4c\	.	.	.	4E\)	.	4c\)	.	.	.	.	.	.
*	*	*	*v	*v	*	*	*	*	*	*	*	*	*	*	*	*	*	*	*	*
=31	=31	=31	=31	=31	=31	=31	=31	=31	=31	=31	=31	=31	=31	=31	=31	=31	=31	=31	=31
4F/	2F\	2a/	2f\	4F/	4F\	.	8r	8r	8r	.	2F\	.	2c\	.	2f/	.	2a/	Je-	.
.	.	.	.	.	.	.	8c\L	8f/L	8a/L	.	.	.	.	.	.	.	.	.	.
4c/	.	.	.	4c/	4r	.	8c\	8f/	8a/	.	.	.	.	.	.	.	.	.	.
.	.	.	.	.	.	.	8c\J	8f/J	8a/J	.	.	.	.	.	.	.	.	.	.
4D/	2D\	2bn/	4g\	4D/	4D\	.	8r	8r	8r	.	2D\	.	4d\	.	(4g/	.	2bn/	-go	.
.	.	.	.	.	.	.	8d/L	8g/L	8bn/L	.	.	.	.	.	.	.	.	.	.
4G/	.	.	4f\	4G/	4r	.	8G/	8f/	8b/	.	.	.	4G/	.	4f/)	.	.	.	.
.	.	.	.	.	.	.	8G/J	8f/J	8b/J	.	.	.	.	.	.	.	.	.	.
!!LO:LB:g=original
=32	=32	=32	=32	=32	=32	=32	=32	=32	=32	=32	=32	=32	=32	=32	=32	=32	=32	=32	=32
4C/	1C	4dd/	1e	4C/	4C\	.	8r	8r	(4dd\	.	2C/	.	2G/	.	2e/	.	(4dd\	dzie-	.
*	*	*	*	*	*	*	*tremolo	*tremolo	*	*	*	*	*	*	*	*	*	*	*
.	.	.	.	.	.	.	8G/L	8e/L	.	.	.	.	.	.	.	.	.	.	.
4G/	.	4cc/	.	4G/	4r	.	8G/	8e/	4cc\)	.	.	.	.	.	.	.	4cc\)	.	.
.	.	.	.	.	.	.	8G/J	8e/J	.	.	.	.	.	.	.	.	.	.	.
4c/	.	2g/	.	4c/	4C\	.	8r	8r	2g/	.	2C/	.	2c\	.	2e/	.	2g/	-ci	.
.	.	.	.	.	.	.	8c\L	8e/L	.	.	.	.	.	.	.	.	.	.	.
4G/	.	.	.	4G/	4r	.	8c\	8e/	.	.	.	.	.	.	.	.	.	.	.
.	.	.	.	.	.	.	8c\J	8e/J	.	.	.	.	.	.	.	.	.	.	.
*	*	*v	*v	*	*	*	*	*	*	*	*	*	*	*	*	*	*	*	*
*	*	*	*v	*v	*	*	*	*	*	*	*	*	*	*	*	*	*	*
=33	=33	=33	=33	=33	=33	=33	=33	=33	=33	=33	=33	=33	=33	=33	=33	=33	=33
*	*	*	*tremolo	*	*	*	*tremolo	*	*	*	*	*	*	*	*	*	*
!	!	!	!	!	!	!	!	!LO:DY:a	!	!LO:DY:a	!	!	!	!	!	!	!LO:DY:a
4C/	2C\	2e/ 2g 2cc	8C/L	.	8e\L	8g/L	8cc\L	f	(4C/	f	2e\	.	2g/	.	2cc\	Cno-	f
.	.	.	8C/J	.	8e\	8g/	8cc\	.	.	.	.	.	.	.	.	.	.
4G/	.	.	8c\L	.	8e\	8g/	8cc\	.	4c\)	.	.	.	.	.	.	.	.
.	.	.	8c\J	.	8e\J	8g/J	8cc\J	.	.	.	.	.	.	.	.	.	.
!	!	!	!	!	!	!	!	!	!	!	!	!	!	!	!	!	!LO:HP:a
4Bn/	4BBn\	4f/ 4g 4dd	8Bn\L	.	8f\L	8g/L	8dd\L	.	4Bn\	.	4f\	.	4g/	.	4dd\	-tą	<
.	.	.	8Bn\J	.	8f\J	8g/J	8dd\J	.	.	.	.	.	.	.	.	.	.
4B-X/	4BB-X\	4g/ 4cc 4ee	8B-X\L	.	8g\L	8cc\L	8ee\L	.	4B-X\	.	4g\	.	4cc\	.	4ee\	Ku	[[
.	.	.	8B-X\J	.	8g\J	8cc\J	8ee\J	.	.	.	.	.	.	.	.	.	.
*	*	*	*	*	*	*	*Xtremolo	*	*	*	*	*	*	*	*	*	*
=34	=34	=34	=34	=34	=34	=34	=34	=34	=34	=34	=34	=34	=34	=34	=34	=34	=34
*	*	*^	*	*	*	*	*	*	*	*	*	*	*	*	*	*	*
*	*	*	*^	*	*	*	*	*	*	*	*	*	*	*	*	*	*	*
*	*	*	*	*	*	*	*	*	*	*	*	*	*	*	*2\right	*	*	*	*
!	!	!	!	!	!	!	!	!	!	!	!	!	!	!	!	!	!	!	!LO:HP:a
4AA/	2AA\	4gg/	2.f\	2.cc/	8A\L	.	8f\L	8cc\L	(4gg\	.	2A\	.	2f\	.	2cc\	.	(4gg\	nie-	>
.	.	.	.	.	8A\	.	8f\	8cc\	.	.	.	.	.	.	.	.	.	.	.
4A/	.	4ff/	.	.	8A\	.	8f\	8cc\	4ff\)	.	.	.	.	.	.	.	4ff\)	.	.
.	.	.	.	.	8A\J	.	8f\	8cc\J	.	.	.	.	.	.	.	.	.	.	.
4BB-/	2BB-\	4dd/	.	.	8B-\L	.	8f\	8b-/L	4dd\	.	4B-\	.	4f\	.	4b-X/	.	4dd\	-mu	.
.	.	.	.	.	8B-\	.	8f\J	8b-/J	.	.	.	.	.	.	.	.	.	.	.
4B-/	.	4g/ 4b-	4d\	4ryy	8B-\	.	8d\L	8g/L	4b-X\	.	4B-\	.	4d\	.	4g/	.	4b-X\	się	]
.	.	.	.	.	8B-\J	.	8d\J	8g/J	.	.	.	.	.	.	.	.	.	.	.
*	*	*	*v	*v	*	*	*	*	*	*	*	*	*	*	*	*	*	*	*
=35	=35	=35	=35	=35	=35	=35	=35	=35	=35	=35	=35	=35	=35	=35	=35	=35	=35	=35
*	*	*	*	*	*	*	*	*tremolo	*	*	*	*	*	*	*	*	*	*
4C/	1C	2a/	2.f\	8c\L	.	8cL	8f/L	8a/L	.	(2c\	.	1c	.	(2.f/	.	(2a/	wzno-	.
.	.	.	.	8c\	.	8c	8f/	8a/	.	.	.	.	.	.	.	.	.	.
4c/	.	.	.	8c\	.	8c	8f/	8a/	.	.	.	.	.	.	.	.	.	.
.	.	.	.	8c\J	.	8c	8f/	8a/J	.	.	.	.	.	.	.	.	.	.
4C/	.	4g/	.	8C/L	.	8c	8f/	8g/L	.	2C/)	.	.	.	.	.	4g/	.	.
.	.	.	.	8C/	.	8c	8f/J	8g/J	.	.	.	.	.	.	.	.	.	.
4c/	.	4cc/	4e\	8C/	.	8c	8e/L	8cc\L	.	.	.	.	.	4e/)	.	4cc\)	.	.
.	.	.	.	8C/J	.	8cJ	8e/J	8cc\J	.	.	.	.	.	.	.	.	.	.
*	*	*	*	*Xtremolo	*	*	*	*	*	*	*	*	*	*	*	*	*	*
*v	*v	*	*	*	*	*	*	*	*	*	*	*	*	*	*	*	*	*
*	*v	*v	*	*	*	*	*	*	*	*	*	*	*	*	*	*	*
=36	=36	=36	=36	=36	=36	=36	=36	=36	=36	=36	=36	=36	=36	=36	=36	=36
4D\	2f/ 2a	4D\	.	8d\L	8f/L	8a/L	.	4F\	.	4A\	.	4f/	.	4a/	-szą	.
.	.	.	.	8d\	8f/	8a/J	.	.	.	.	.	.	.	.	.	.
4d\	.	4d\	.	8d\	8f/	8ff\L	.	4r	.	4r	.	4r	.	4r	.	.
.	.	.	.	8d\J	8f/J	8ff\J	.	.	.	.	.	.	.	.	.	.
4c#X\	4e/ 4g 4a	4c#X\	.	8c#X\L	8g/L	8a/L	.	2r	.	2r	.	2r	.	2r	.	.
.	.	.	.	8c#X\	8g/	8a/J	.	.	.	.	.	.	.	.	.	.
!	!LO:SIC:v:n=2:s=4cc#	!	!	!	!	!	!	!	!	!	!	!	!	!	!	!
!	!LO:SIC:v:n=3s=4a	!	!	!	!	!	!	!	!	!	!	!	!	!	!	!
4A\	4g/ 4a#X 4cc 4ee	4A\	.	8c#X\	8g/	8ff\L	.	.	.	.	.	.	.	.	.	.
.	.	.	.	8c#X\J	8g/J	8ff\J	.	.	.	.	.	.	.	.	.	.
!!LO:PB:g=original
=37	=37	=37	=37	=37	=37	=37	=37	=37	=37	=37	=37	=37	=37	=37	=37	=37
!	!	!	!	!	!	!	!	!	!LO:DY:a	!	!	!	!	!	!	!LO:DY:a
2D\ 2d	2f/ 2a 2ff	4D\	.	8d\L	8f/L	8ff\L	.	2d\	f	2f\	.	2a/	.	2ff\	Cno-	f
.	.	.	.	8d\	8f/	8ff\	.	.	.	.	.	.	.	.	.	.
.	.	4d\	.	8d\	8f/	8ff\	.	.	.	.	.	.	.	.	.	.
.	.	.	.	8d\J	8f/J	8ff\J	.	.	.	.	.	.	.	.	.	.
4AA\ 4A	4e/ 4g 4cc#X	4A\	.	8e\L	8g/L	8cc#X\L	.	4A\	.	4e\	.	4g/	.	4cc#X\	-tą	.
.	.	.	.	8e\J	8g/J	8cc#X\J	.	.	.	.	.	.	.	.	.	.
4BB-\ 4B-	4d/ 4f 4dd	4B-\	.	8d\L	8f/L	8dd\L	.	4B-\	.	4d\	.	4f/	.	4dd\	Ku	.
.	.	.	.	8d\J	8f/J	8dd\J	.	.	.	.	.	.	.	.	.	.
*	*	*	*	*Xtremolo	*Xtremolo	*Xtremolo	*	*	*	*	*	*	*	*	*	*
=38	=38	=38	=38	=38	=38	=38	=38	=38	=38	=38	=38	=38	=38	=38	=38	=38
*	*^	*	*	*	*	*	*	*	*	*	*	*	*	*	*	*
4C\ 4c	4ccn/	2e\ 2g	4c\	.	(2e\	(2g/	(4ccn\	.	(4c\	.	2e\	.	2g/	.	(4ccn\	Nie-	.
4C#X\ 4c#X	4b-/	.	4c#X\	.	.	.	4b-\)	.	4c#X\)	.	.	.	.	.	4b-\)	.	.
4D\ 4d	4a/	4f\	4d\	.	4f\)	4f/)	(4a/	.	4d\	.	4f\	.	4f/	.	4a/	-mu	.
4BBn\ 4Bn	4f/ 4g	4d\	4Bn\	.	4d\	4f/	4g/)	.	4Bn\	.	4d\	.	4f/	.	4g/	się	.
=39	=39	=39	=39	=39	=39	=39	=39	=39	=39	=39	=39	=39	=39	=39	=39	=39	=39
*^	*	*	*	*	*	*	*	*	*	*	*	*	*	*	*	*	*
*	*	*	*	*tremolo	*	*tremolo	*tremolo	*tremolo	*	*	*	*	*	*	*	*	*	*
4C/	2C\	2a/	2.f\	8c\L	.	8cL	8f/L	8a/L	.	(2c\	.	1c	.	(2.f/	.	(2a/	wzno-	.
.	.	.	.	8c\	.	8c	8f/	8a/	.	.	.	.	.	.	.	.	.	.
4c/	.	.	.	8c\	.	8c	8f/	8a/	.	.	.	.	.	.	.	.	.	.
.	.	.	.	8c\J	.	8c	8f/	8a/J	.	.	.	.	.	.	.	.	.	.
4C/	2C\	4g/	.	8C/L	.	8c	8f/	8g/L	.	2C/)	.	.	.	.	.	4g/	.	.
.	.	.	.	8C/	.	8c	8f/J	8g/J	.	.	.	.	.	.	.	.	.	.
4c/	.	4cc/	4e\	8C/	.	8c	8e/L	8cc\L	.	.	.	.	.	4e/)	.	4cc\)	.	.
.	.	.	.	8C/J	.	8cJ	8e/J	8cc\J	.	.	.	.	.	.	.	.	.	.
*	*	*	*	*Xtremolo	*	*Xtremolo	*Xtremolo	*Xtremolo	*	*	*	*	*	*	*	*	*	*
*	*	*	*	*	*	*	*	*	*	*	*	*	*	*	*	*	*	*
*	*	*	*	*	*	*	*	*	*	*	*	*	*	*	*	*	*	*
=40	=40	=40	=40	=40	=40	=40	=40	=40	=40	=40	=40	=40	=40	=40	=40	=40	=40	=40
!	!	!	!	!	!	!	!	!	!LO:DY:b	!	!	!	!	!	!	!	!	!
4F/	4F\	4f/	4f\	4F\	.	4f\	4f/	4f/	p	4F\	.	4F/	.	4f/	.	4f/	-szą.	.
!	!	!	!	!	!LO:DY:a	!	!	!	!	!	!	!	!	!	!	!	!	!
4e-X/	[2.F\	4a/	2.f\	2F\	p	(4e-X\	2f/	(4a/	.	4r	.	4r	.	4r	.	4r	.	.
4d/	.	4b-/	.	.	.	4d\	.	4b-/	.	2r	.	2r	.	2r	.	2r	.	.
!	!	!LO:SIC:v:s=4dd-	!	!	!	!	!	!	!	!	!	!	!	!	!	!	!	!
4B-/	.	4dd/	.	[4F\	.	4B-/)	[4f/	4dd-X\)	.	.	.	.	.	.	.	.	.	.
=41	=41	=41	=41	=41	=41	=41	=41	=41	=41	=41	=41	=41	=41	=41	=41	=41	=41	=41
4A/	1F_	4cc/	1f	4F\]	.	4A/	4f/]	4cc\	.	1r	.	1r	.	1r	.	1r	.	.
4e-X/	.	4a/	.	2F\	.	(4e-X\	2f/	(4a/	.	.	.	.	.	.	.	.	.	.
4d/	.	2b-/	.	.	.	4d\	.	2b-/)	.	.	.	.	.	.	.	.	.	.
4d-X/	.	.	.	4F\	.	4d-X\)	4f/	.	.	.	.	.	.	.	.	.	.	.
!!LO:LB:g=original
=42	=42	=42	=42	=42	=42	=42	=42	=42	=42	=42	=42	=42	=42	=42	=42	=42	=42	=42
*	*	*	*^	*^	*	*	*	*	*	*	*	*	*	*	*	*	*	*
*	*	*	*	*	*	*	*	*	*	*tremolo	*	*	*	*	*	*	*	*	*	*
!	!LO:TX:t=P:problem=brak zakończenia ligatury	!	!	!	!	!	!	!	!	!	!	!	!	!	!	!	!	!	!	!
2c/	1F]	2a/	1f	2ryy	2ryy	2F\	.	2c\	2f/	8a/L	.	1r	.	1r	.	1r	.	1r	.	.
.	.	.	.	.	.	.	.	.	.	8a/	.	.	.	.	.	.	.	.	.	.
.	.	.	.	.	.	.	.	.	.	8a/	.	.	.	.	.	.	.	.	.	.
.	.	.	.	.	.	.	.	.	.	8a/J	.	.	.	.	.	.	.	.	.	.
*	*	*	*	*	*	*	*	*	*	*Xtremolo	*	*	*	*	*	*	*	*	*	*
2Bn/	.	2g#X/	.	2d\	2d/	2F\	.	2Bn/	2f/	2g#X/	.	.	.	.	.	.	.	.	.	.
*v	*v	*	*	*	*v	*v	*	*	*	*	*	*	*	*	*	*	*	*	*	*
*	*v	*v	*v	*	*	*	*	*	*	*	*	*	*	*	*	*	*	*
=43	=43	=43	=43	=43	=43	=43	=43	=43	=43	=43	=43	=43	=43	=43	=43	=43
1F;< 1c	1f; 1a	1F;< 1c	.	1c;	1f;	1a;	.	1r;	.	1r;	.	1r;	.	1r;	.	.
!!LO:PB:g=original
==	==	==	==	==	==	==	==	==	==	==	==	==	==	==	==	==
*-	*-	*-	*-	*-	*-	*-	*-	*-	*-	*-	*-	*-	*-	*-	*-	*-
!!!system-decoration: [(s1,s2,s3,s4)][(s5,s6,s7,s8)]{(s9,s10)}
!!!RDF**kern: < = below
!!!RDF**kern: > = above
!!!RDF**kern: | = vertical stroke
!!!ENC: Marta Chmielewska
!!!END: 2021-04-29
!!!ENC: Andrzej Gręziak
!!!END: 2021-04-11
!!!YEC: Copyright 2022 Narodowy Instytut Fryderyka Chopina (https://polishscores.org)
!!!YEM: Licence CC BY 4.0 (https://creativecommons.org/licenses/by/4.0)
